; Postprocessed by [ArcWelder](https://github.com/FormerLurker/ArcWelderLib)
; Copyright(C) 2021 - Brad Hochgesang
; Version: 1.2.0, Branch: master, BuildDate: 2021-11-21T20:04:00Z
; resolution=0.05mm
; path_tolerance=5.0%
; max_radius=9999.00mm
; default_xyz_precision=3
; default_e_precision=5
; extrusion_rate_variance=5.0%

; generated by AnycubicSlicer 1.3.0 on 2024-04-04 at 08:50:55 UTC

; 

; external perimeters extrusion width = 0.42mm
; perimeters extrusion width = 0.45mm
; infill extrusion width = 0.45mm
; solid infill extrusion width = 0.50mm
; top infill extrusion width = 0.42mm
; support material extrusion width = 0.42mm
; first layer extrusion width = 0.56mm

; external perimeters extrusion width = 0.42mm
; perimeters extrusion width = 0.45mm
; infill extrusion width = 0.45mm
; solid infill extrusion width = 0.50mm
; top infill extrusion width = 0.42mm
; support material extrusion width = 0.42mm
; first layer extrusion width = 0.56mm

;TYPE:Custom
G90 ; use absolute coordinates
M83 ; extruder relative mode
M104 S215 ; set extruder temp
M140 S60 ; set bed temp
M190 S60 ; wait for bed temp
M109 S215 ; wait for extruder temp
G28                                        ; move X/Y/Z to min endstops
G1 Z0.28                                   ; lift nozzle a bit 
G92 E0 
G1 Y3 F1800                                    ; zero the extruded length 
G1 X60  E25 F500                       ; Extrude 25mm of filament in a 5cm line. 
G92 E0                                     ; zero the extruded length again 
G1 E-2 F500                                ; Retract a little 
G1 X70 F4000                              ; Quickly wipe away from the filament line
M117
G21 ; set units to millimeters
G90 ; use absolute coordinates
M82 ; use absolute distances for extrusion
G92 E0
M107
;LAYER_CHANGE
;Z:0.28
;HEIGHT:0.28
; BEFORE_LAYER_CHANGE 0 @ 0.28mm
G1 E-2 F4800
G92 E0
G1 Z.28 F7200
; AFTER_LAYER_CHANGE 0 @ 0.28mm
G1 X150.321 Y198.695
G1 E2 F4800
;TYPE:Support material
;WIDTH:0.56
G1 F3000
G1 X150.116 Y200.15 E2.08551
G1 X149.523 Y201.477 E2.17009
G1 X148.582 Y202.591 E2.25495
G1 X147.421 Y203.367 E2.33622
G1 X146.726 Y203.614 E2.37914
G1 X145.937 Y203.846 E2.427
G1 X144.524 Y203.886 E2.50926
G1 X143.211 Y203.548 E2.58816
G1 X143.046 Y203.462 E2.59899
G1 X142.619 Y203.614 E2.62537
G1 X141.829 Y203.846 E2.67329
G1 X140.415 Y203.886 E2.75561
G1 X139.103 Y203.547 E2.83447
G1 X138.531 Y203.25 E2.87198
G1 X138.356 Y203.367 E2.88423
G1 X137.659 Y203.614 E2.92726
G1 X136.871 Y203.846 E2.97506
G1 X135.457 Y203.886 E3.05738
G1 X134.528 Y203.646 E3.11322
G1 X133.853 Y203.845 E3.15417
G1 X132.441 Y203.885 E3.23637
G1 X131.129 Y203.549 E3.31519
G1 X130.446 Y203.195 E3.35996
G1 X129.724 Y202.732 E3.40987
G1 X128.773 Y201.73 E3.49026
G1 X128.166 Y200.563 E3.56681
G1 X127.95 Y199.789 E3.61357
G1 X127.844 Y199.056 E3.65667
G1 X127.844 Y198.347 E3.69793
G1 X127.95 Y197.614 E3.74103
G1 X127.984 Y197.49 E3.74851
G1 X150.151 Y197.49 E5.03852
G1 X150.31 Y198.621 E5.10499
G1 X149.437 Y201.117 F7200
G1 F3000
G1 X149.437 Y197.94 E5.28988
G1 X148.882 Y197.94 E5.32218
G1 X148.882 Y201.538 E5.53157
G1 X148.327 Y202.196 E5.58166
G1 X148.327 Y197.94 E5.82934
G1 X147.771 Y197.94 E5.8617
G1 X147.771 Y202.592 E6.13242
G1 X147.216 Y202.963 E6.17127
G1 X147.216 Y197.94 E6.46358
G1 X146.66 Y197.94 E6.49594
G1 X146.66 Y203.16 E6.79972
G1 X146.105 Y203.328 E6.83347
G1 X146.105 Y197.94 E7.14702
G1 X145.549 Y197.94 E7.17938
G1 X145.549 Y203.407 E7.49753
G1 X144.994 Y203.422 E7.52984
G1 X144.994 Y197.94 E7.84886
G1 X144.438 Y197.94 E7.88122
G1 X144.438 Y203.399 E8.19891
G1 X143.883 Y203.256 E8.23226
G1 X143.883 Y197.94 E8.54162
G1 X143.327 Y197.94 E8.57398
G1 X143.327 Y203.101 E8.87432
G1 X143.08 Y202.973 E8.89051
G1 X142.772 Y203.082 E8.90952
G1 X142.772 Y197.94 E9.20876
G1 X142.217 Y197.94 E9.24106
G1 X142.217 Y203.263 E9.55083
G1 X141.759 Y203.398 E9.57862
G1 X141.661 Y203.4 E9.58432
G1 X141.661 Y197.94 E9.90206
G1 X141.106 Y197.94 E9.93436
G1 X141.106 Y203.416 E10.25304
G1 X140.55 Y203.432 E10.28541
G1 X140.55 Y197.94 E10.60502
G1 X139.995 Y197.94 E10.63732
G1 X139.995 Y203.312 E10.94994
G1 X139.439 Y203.169 E10.98335
G1 X139.439 Y197.94 E11.28765
G1 X138.884 Y197.94 E11.31995
G1 X138.884 Y202.926 E11.61011
G1 X138.502 Y202.728 E11.63515
G1 X138.328 Y202.844 E11.64732
G1 X138.328 Y197.94 E11.93271
G1 X137.773 Y197.94 E11.96501
G1 X137.773 Y203.097 E12.26512
G1 X137.217 Y203.275 E12.29909
G1 X137.217 Y197.94 E12.60956
G1 X136.662 Y197.94 E12.64186
G1 X136.662 Y203.402 E12.95972
G1 X136.106 Y203.417 E12.99209
G1 X136.106 Y197.94 E13.31082
G1 X135.551 Y197.94 E13.34312
G1 X135.551 Y203.433 E13.66278
G1 X135.508 Y203.434 E13.66528
G1 X134.996 Y203.302 E13.69605
G1 X134.996 Y197.94 E14.00809
G1 X134.44 Y197.94 E14.04045
G1 X134.44 Y203.203 E14.34673
G1 X133.885 Y203.366 E14.38039
G1 X133.885 Y197.94 E14.69616
G1 X133.329 Y197.94 E14.72852
G1 X133.329 Y203.41 E15.04685
G1 X132.774 Y203.426 E15.07916
G1 X132.774 Y197.94 E15.39842
G1 X132.218 Y197.94 E15.43078
G1 X132.218 Y203.364 E15.74643
G1 X131.663 Y203.221 E15.77978
G1 X131.663 Y197.94 E16.08711
G1 X131.107 Y197.94 E16.11947
G1 X131.107 Y203.031 E16.41574
G1 X130.552 Y202.729 E16.45251
G1 X130.552 Y197.94 E16.73121
G1 X129.996 Y197.94 E16.76357
G1 X129.996 Y202.365 E17.02108
G1 X129.441 Y201.78 E17.06801
G1 X129.441 Y197.94 E17.29148
G1 X128.886 Y197.94 E17.32378
G1 X128.886 Y200.971 E17.50017
G3 X128.330 Y199.275 I3.403 J-2.055 E17.60495
G1 X128.33 Y197.715 E17.69573
G1 E16.29573 F4800
;WIPE_START
G1 F5760
G1 X128.33 Y198.473 E15.69573
;WIPE_END
G92 E0
G1 X54.345 Y113.843 F7200
G1 E2 F4800
;TYPE:External perimeter
G1 F3000
G3 X56.009 Y113.280 I1.656 J2.153 E2.10402
G1 X164 Y113.281 E8.38855
G3 X166.720 Y116.009 I0.001 J2.719 E8.63746
G1 X166.72 Y193.991 E13.17562
G3 X163.991 Y196.720 I-2.721 J0.008 E13.42506
G1 X56.009 Y196.72 E19.70907
G3 X53.280 Y193.991 I-0.008 J-2.721 E19.95851
G1 X53.28 Y116.009 E24.49667
G3 X54.299 Y113.882 I2.704 J-0.012 E24.63860
G1 X54.673 Y113.979 F7200
G1 X54.65 Y114.24
;TYPE:Perimeter
G1 F3000
G3 X56.026 Y113.780 I1.358 J1.773 E24.72453
G1 X163.984 Y113.781 E31.00714
G3 X166.220 Y116.026 I0.015 J2.221 E31.21224
G1 X166.22 Y193.974 E35.74842
G3 X163.974 Y196.220 I-2.223 J0.023 E35.95410
G1 X56.026 Y196.22 E42.23613
G3 X53.780 Y193.974 I-0.023 J-2.223 E42.44181
G1 X53.78 Y116.026 E46.97799
G3 X54.604 Y114.280 I2.209 J-0.025 E47.09418
G1 X54.954 Y114.637 F7200
G1 F3000
G3 X56.042 Y114.280 I1.060 J1.394 E47.16200
G1 X163.967 Y114.28 E53.44269
G3 X165.720 Y116.042 I0.025 J1.728 E53.60397
G1 X165.72 Y193.958 E58.13829
G3 X163.958 Y195.720 I-1.728 J0.034 E58.30009
G1 X56.042 Y195.72 E64.58025
G3 X54.280 Y193.958 I-0.034 J-1.728 E64.74205
G1 X54.28 Y116.042 E69.27637
G3 X54.909 Y114.677 I1.715 J-0.037 E69.36682
G1 E67.96682 F4800
;WIPE_START
G1 F5760
G3 X55.579 Y114.336 I1.076 J1.285 E67.36682
;WIPE_END
G92 E0
G1 X67.69 Y183.093 F7200
G1 E2 F4800
;TYPE:External perimeter
G1 F3000
G3 X67.926 Y183.157 I0.478 J-1.296 E2.49020
G1 X67.748 Y183.109 E2.50093
G1 X67.509 Y183.245 F7200
G1 X67.488 Y183.55
;TYPE:Perimeter
G1 F3000
G3 X67.839 Y183.651 I0.693 J-1.749 E3.16712
G1 X67.544 Y183.572 E3.18489
G1 X67.282 Y184.006 F7200
G1 F3000
G3 X68.166 Y184.182 I0.899 J-2.208 E4.00297
G3 X67.336 Y184.031 I0.004 J-2.378 E4.05226
G1 E2.65226 F4800
;WIPE_START
G1 F5760
G3 X66.680 Y183.657 I0.748 J-2.074 E2.05226
;WIPE_END
G92 E0
G1 X68.924 Y128.882 F7200
G1 E2 F4800
;TYPE:External perimeter
G1 F3000
G3 X69.097 Y128.710 I-0.883 J-1.062 E2.49022
G1 X68.967 Y128.84 E2.50092
G1 X68.965 Y129.115 F7200
G1 X69.276 Y129.238
;TYPE:Perimeter
G1 F3000
G3 X69.482 Y129.032 I-1.223 J-1.429 E3.17143
G1 X69.319 Y129.195 E3.18484
G1 X69.626 Y129.595 F7200
G1 F3000
G3 X70.104 Y129.014 I-1.578 J-1.786 E4.01165
G3 X69.668 Y129.553 I-1.733 J-0.956 E4.05215
G1 E2.65215 F4800
;WIPE_START
G1 F5760
G3 X69.043 Y129.975 I-1.265 J-1.200 E2.05215
;WIPE_END
G92 E0
G1 X148.904 Y128.26 F7200
G1 E2 F4800
;TYPE:External perimeter
G1 F3000
G3 X148.924 Y128.494 I1.381 J-0.000 E2.49070
G1 X148.909 Y128.32 E2.50086
G1 X148.69 Y128.137 F7200
G1 X148.405 Y128.291
;TYPE:Perimeter
G1 F3000
G3 X148.430 Y128.581 I1.880 J-0.016 E3.17147
G1 X148.41 Y128.351 E3.18491
G1 X147.906 Y128.33 F7200
G1 F3000
G3 X148.044 Y129.069 I2.382 J-0.062 E4.01178
G3 X147.912 Y128.389 I1.832 J-0.708 E4.05225
G1 E2.65225 F4800
;WIPE_START
G1 F5760
G3 X147.990 Y127.639 I1.726 J-0.200 E2.05225
;WIPE_END
G92 E0
G1 X152.506 Y180.981 F7200
G1 E2 F4800
;TYPE:External perimeter
G1 F3000
G3 X152.275 Y180.919 I-0.472 J1.297 E2.49041
G1 X152.448 Y180.965 E2.50083
G1 X152.692 Y180.823 F7200
G1 X152.644 Y180.5
;TYPE:Perimeter
G1 F3000
G3 X152.358 Y180.424 I-0.625 J1.775 E3.17109
G1 X152.586 Y180.485 E3.18483
G1 X152.779 Y180.019 F7200
G1 F3000
G3 X152.008 Y179.897 I-0.753 J2.261 E4.00993
G3 X152.721 Y180.003 I0.081 J1.904 E4.05206
G1 E2.65206 F4800
;WIPE_START
G1 F5760
G3 X153.399 Y180.333 I-0.409 J1.702 E2.05206
;WIPE_END
G92 E0
G1 X163.6 Y114.48 F7200
G1 E2 F4800
;TYPE:Solid infill
;WIDTH:0.560483
G1 F3000
G1 X165.295 Y116.176 E2.13967
G1 X165.295 Y116.884 E2.18091
G1 X163.117 Y114.705 E2.36037
G1 X162.409 Y114.705 E2.40161
G1 X165.295 Y117.591 E2.63936
G1 X165.295 Y118.299 E2.6806
G1 X161.702 Y114.705 E2.97663
G1 X160.994 Y114.705 E3.01787
G1 X165.295 Y119.007 E3.37223
G1 X165.295 Y119.714 E3.41341
G1 X160.286 Y114.705 E3.82605
G1 X159.579 Y114.705 E3.86723
G1 X165.295 Y120.422 E4.33815
G1 X165.295 Y121.13 E4.37939
G1 X158.871 Y114.705 E4.90864
G1 X158.163 Y114.705 E4.94988
G1 X165.295 Y121.837 E5.53741
G1 X165.295 Y122.545 E5.57865
G1 X157.456 Y114.705 E6.22446
G1 X156.748 Y114.705 E6.2657
G1 X165.295 Y123.253 E6.96984
G1 X165.295 Y123.96 E7.01102
G1 X156.04 Y114.705 E7.77344
G1 X155.333 Y114.705 E7.81462
G1 X165.295 Y124.668 E8.63533
G1 X165.295 Y125.376 E8.67657
G1 X154.625 Y114.705 E9.5556
G1 X153.917 Y114.705 E9.59684
G1 X165.295 Y126.083 E10.53415
G1 X165.295 Y126.791 E10.57539
G1 X153.21 Y114.705 E11.57099
G1 X152.502 Y114.705 E11.61223
G1 X165.295 Y127.499 E12.66615
G1 X165.295 Y128.206 E12.70733
G1 X151.794 Y114.705 E13.81954
G1 X151.087 Y114.705 E13.86072
G1 X165.295 Y128.914 E15.03121
G1 X165.295 Y129.622 E15.07245
G1 X150.379 Y114.705 E16.30126
G1 X149.671 Y114.705 E16.3425
G1 X165.295 Y130.329 E17.6296
G1 X165.295 Y131.037 E17.67084
G1 X148.964 Y114.705 E19.01622
G1 X148.256 Y114.705 E19.05746
G1 X165.295 Y131.745 E20.46117
G1 X165.295 Y132.452 E20.50235
G1 X147.548 Y114.705 E21.96434
G1 X146.841 Y114.705 E22.00552
G1 X165.295 Y133.16 E23.52579
G1 X165.295 Y133.868 E23.56703
G1 X146.133 Y114.705 E25.14563
G1 X145.425 Y114.705 E25.18687
G1 X165.295 Y134.575 E26.82375
G1 X165.295 Y135.283 E26.86499
G1 X144.718 Y114.705 E28.56015
G1 X144.01 Y114.705 E28.60139
G1 X165.295 Y135.991 E30.35488
G1 X165.295 Y136.698 E30.39606
G1 X143.302 Y114.705 E32.20783
G1 X142.595 Y114.705 E32.24901
G1 X165.295 Y137.406 E34.11907
G1 X165.295 Y138.114 E34.16031
G1 X141.887 Y114.705 E36.08869
G1 X141.179 Y114.705 E36.12993
G1 X165.295 Y138.821 E38.11659
G1 X165.295 Y139.529 E38.15783
G1 X140.472 Y114.705 E40.20278
G1 X139.764 Y114.705 E40.24402
G1 X150.523 Y125.464 E41.13034
G2 X149.833 Y125.482 I-0.289 J2.166 E41.17066
G1 X139.056 Y114.705 E42.05846
G1 X138.349 Y114.705 E42.09964
G1 X149.277 Y125.634 E42.99992
G2 X148.806 Y125.870 I0.433 J1.452 E43.03068
G1 X137.641 Y114.705 E43.95045
G1 X136.933 Y114.705 E43.99169
G1 X148.403 Y126.175 E44.93658
G2 X148.063 Y126.543 I0.908 J1.180 E44.96584
G1 X136.226 Y114.705 E45.94101
G1 X135.518 Y114.705 E45.98225
G1 X147.79 Y126.977 E46.99321
G2 X147.591 Y127.486 I1.342 J0.818 E47.02516
G1 X134.81 Y114.705 E48.07805
G1 X134.103 Y114.705 E48.11923
G1 X147.704 Y128.306 E49.23967
G1 E47.83967 F4800
;WIPE_START
G1 F5760
G1 X147.168 Y127.77 E47.23967
;WIPE_END
G92 E0
G1 X152.818 Y127.76 F7200
G1 E2 F4800
G1 F3000
G1 X165.295 Y140.237 E3.02785
G1 X165.295 Y140.944 E3.06903
G1 X153.056 Y128.705 E4.07727
G1 X152.905 Y129.261 E4.11083
G1 X165.295 Y141.652 E5.13155
G1 X165.295 Y142.36 E5.17279
G1 X152.668 Y129.732 E6.21304
G3 X152.363 Y130.135 I-1.247 J-0.627 E6.24256
G1 X165.295 Y143.067 E7.30789
G1 X165.295 Y143.775 E7.34913
G1 X151.995 Y130.475 E8.44478
G3 X151.561 Y130.748 I-0.992 J-1.096 E8.47474
G1 X165.295 Y144.483 E9.60618
G1 X165.295 Y145.19 E9.64736
G1 X151.052 Y130.947 E10.82069
G3 X150.448 Y131.051 I-0.598 J-1.670 E10.85653
G1 X165.295 Y145.898 E12.07962
G1 X165.295 Y146.606 E12.12086
G1 X149.681 Y130.992 E13.40713
G3 X147.547 Y128.857 I0.568 J-2.702 E13.59305
G1 X133.395 Y114.705 E14.75888
G1 X132.687 Y114.705 E14.80012
G1 X165.295 Y147.313 E17.48635
G1 X165.295 Y148.021 E17.52759
G1 X131.98 Y114.705 E20.2721
G1 X131.272 Y114.705 E20.31334
G1 X165.295 Y148.729 E23.11618
G1 X165.295 Y149.436 E23.15736
G1 X130.564 Y114.705 E26.01848
G1 X129.857 Y114.705 E26.05966
G1 X165.295 Y150.144 E28.97907
G1 X165.295 Y150.852 E29.02031
G1 X129.149 Y114.705 E31.99804
G1 X128.441 Y114.705 E32.03928
G1 X165.295 Y151.559 E35.07529
G1 X165.295 Y152.267 E35.11653
G1 X127.734 Y114.705 E38.21083
G1 X127.026 Y114.705 E38.25207
G1 X165.295 Y152.975 E41.40469
G1 X165.295 Y153.682 E41.44587
G1 X126.318 Y114.705 E44.65678
G1 X125.611 Y114.705 E44.69796
G1 X165.295 Y154.39 E47.96715
G1 X165.295 Y155.097 E48.00833
G1 X124.903 Y114.705 E51.3358
G1 X124.195 Y114.705 E51.37704
G1 X165.295 Y155.805 E54.76284
G1 X165.295 Y156.513 E54.80408
G1 X123.488 Y114.705 E58.24816
G1 X122.78 Y114.705 E58.2894
G1 X165.295 Y157.22 E61.79176
G1 X165.295 Y157.928 E61.833
G1 X122.072 Y114.705 E65.39369
G1 X121.365 Y114.705 E65.43487
G1 X165.295 Y158.636 E69.05384
G1 X165.295 Y159.343 E69.09502
G1 X120.657 Y114.705 E72.77228
G1 X119.949 Y114.705 E72.81352
G1 X165.295 Y160.051 E76.5491
G1 X165.295 Y160.759 E76.59034
G1 X119.242 Y114.705 E80.3842
G1 X118.534 Y114.705 E80.42544
G1 X165.295 Y161.466 E84.27759
G1 X165.295 Y162.174 E84.31883
G1 X117.826 Y114.705 E88.2293
G1 X117.119 Y114.705 E88.27048
G1 X165.295 Y162.882 E92.23924
G1 X165.295 Y163.589 E92.28042
G1 X116.411 Y114.705 E96.30746
G1 X115.703 Y114.705 E96.3487
G1 X165.295 Y164.297 E100.43406
G1 X165.295 Y165.005 E100.4753
G1 X114.996 Y114.705 E104.61895
G1 X114.288 Y114.705 E104.66019
G1 X165.295 Y165.712 E108.86212
G1 X165.295 Y166.42 E108.90336
G1 X113.58 Y114.705 E113.16362
G1 X112.873 Y114.705 E113.2048
G1 X165.295 Y167.128 E117.52334
G1 X165.295 Y167.835 E117.56452
G1 X112.165 Y114.705 E121.94134
G1 X111.457 Y114.705 E121.98258
G1 X165.295 Y168.543 E126.41773
G1 X165.295 Y169.251 E126.45897
G1 X110.75 Y114.705 E130.9524
G1 X110.042 Y114.705 E130.99364
G1 X165.295 Y169.958 E135.54535
G1 X165.295 Y170.666 E135.58659
G1 X109.334 Y114.705 E140.19663
G1 X108.627 Y114.705 E140.23781
G1 X165.295 Y171.374 E144.90613
G1 X165.295 Y172.081 E144.94731
G1 X107.919 Y114.705 E149.67392
G1 X107.211 Y114.705 E149.71516
G1 X165.295 Y172.789 E154.50009
G1 X165.295 Y173.497 E154.54133
G1 X106.504 Y114.705 E159.38454
G1 X105.796 Y114.705 E159.42578
G1 X165.295 Y174.204 E164.32728
G1 X165.295 Y174.912 E164.36852
G1 X105.088 Y114.705 E169.32834
G1 X104.381 Y114.705 E169.36952
G1 X165.295 Y175.62 E174.38763
G1 X165.295 Y176.327 E174.42881
G1 X103.673 Y114.705 E179.5052
G1 X102.965 Y114.705 E179.54644
G1 X165.295 Y177.035 E184.68115
G1 X165.295 Y177.743 E184.72239
G1 X102.258 Y114.705 E189.91539
G1 X101.55 Y114.705 E189.95663
G1 X165.295 Y178.45 E195.20791
G1 X165.295 Y179.158 E195.24915
G1 X100.842 Y114.705 E200.55876
G1 X100.135 Y114.705 E200.59994
G1 X165.295 Y179.866 E205.96783
G1 X165.295 Y180.573 E206.00901
G1 X99.427 Y114.705 E211.43518
G1 X98.719 Y114.705 E211.47642
G1 X165.295 Y181.281 E216.96092
G1 X165.295 Y181.989 E217.00216
G1 X98.012 Y114.705 E222.54494
G1 X97.304 Y114.705 E222.58618
G1 X165.295 Y182.696 E228.18724
G1 X165.295 Y183.404 E228.22848
G1 X96.596 Y114.705 E233.88787
G1 X95.889 Y114.705 E233.92905
G1 X165.295 Y184.112 E239.64672
G1 X165.295 Y184.819 E239.6879
G1 X95.181 Y114.705 E245.46386
G1 X94.473 Y114.705 E245.5051
G1 X165.295 Y185.527 E251.33938
G1 X165.295 Y186.235 E251.38062
G1 X93.766 Y114.705 E257.27318
